markets/ZRX.svg

<svg width="42" height="42" viewBox="0 0 42 42" fill="none" xmlns="http://www.w3.org/2000/svg">
<circle cx="21" cy="21" r="21" fill="black"/>
<g clip-path="url(#clip0_7699_9823)">
<path d="M28.4104 25.6364C29.3962 26.961 30.4128 28.3165 31.4294 29.672C29.3962 32.0749 26.8701 33.6152 23.8203 34.2621C20.4316 34.9706 17.2277 34.4469 14.1163 32.7218C16.8889 30.6578 19.5998 28.6246 22.3416 26.5913C22.9577 27.1767 23.543 27.762 24.1283 28.3165C24.7753 28.9326 24.5288 28.9634 25.3606 28.5013C26.5004 27.8544 27.4554 26.961 28.1948 25.8828C28.2256 25.8212 28.2872 25.7596 28.318 25.698C28.2872 25.698 28.318 25.698 28.4104 25.6364ZM16.3036 28.3473C15.5334 28.9326 14.8249 29.4563 14.1163 30.0108C13.5926 30.4113 13.0689 30.781 12.5452 31.1815C12.3296 31.3663 12.1755 31.3663 11.9291 31.1507C9.58779 29.0558 8.10909 26.4681 7.55458 23.3875C7.00007 20.2761 7.49297 17.3187 8.97167 14.5153C9.00248 14.4537 9.06409 14.3613 9.09489 14.2997C9.09489 14.2688 9.1257 14.2688 9.18731 14.238C11.2205 16.9182 13.2845 19.5983 15.3178 22.2785C15.2561 22.3709 15.2253 22.4325 15.1637 22.4941C14.5476 23.141 13.9315 23.788 13.2845 24.4041C13.0997 24.5889 13.0689 24.743 13.1921 24.9586C13.8391 26.1909 14.7324 27.2075 15.8415 28.0392C15.9955 28.1317 16.1187 28.2241 16.3036 28.3473ZM27.7943 9.21663C26.8085 9.92517 25.8227 10.6337 24.8369 11.3114C23.1425 12.5129 21.4482 13.7451 19.7847 14.9466C19.569 15.1006 19.415 15.1314 19.2301 14.9158C18.6756 14.3305 18.0903 13.8068 17.5358 13.2214C17.3818 13.0674 17.2277 13.0366 17.0121 13.129C15.6874 13.8068 14.64 14.7617 13.7774 15.9632C13.7158 16.0248 13.6542 16.1172 13.5926 16.2096C13.0997 15.5627 12.6376 14.9774 12.1755 14.3613C11.6826 13.7143 11.2205 13.0674 10.7584 12.4513C10.6044 12.2356 10.5736 12.0816 10.7892 11.866C13.1613 9.24743 16.0879 7.70712 19.5998 7.33745C22.3724 7.02938 25.0217 7.5839 27.4862 8.90856C27.5786 8.97018 27.6711 9.00098 27.7635 9.06259C27.7635 9.15501 27.7635 9.18582 27.7943 9.21663ZM32.8157 27.7004C32.1688 26.8686 31.5834 26.0984 30.9981 25.3283C29.6427 23.5415 28.2872 21.724 26.9009 19.9372C26.7161 19.6907 26.7161 19.5367 26.9317 19.3211C27.517 18.7358 28.0715 18.1504 28.6569 17.5651C28.8109 17.4111 28.8725 17.2571 28.7493 17.0414C28.0715 15.7475 27.1474 14.6693 25.9459 13.8068C25.8535 13.7451 25.7611 13.6527 25.6378 13.5911C25.7303 13.4987 25.8227 13.4371 25.8843 13.3755C27.0549 12.4821 28.2256 11.6195 29.3962 10.7261C29.581 10.5721 29.7351 10.5105 29.9507 10.7261C32.8773 13.3755 34.4484 16.6717 34.6025 20.6457C34.6641 22.9562 34.1404 25.1435 33.093 27.2075C33.0005 27.3307 32.9081 27.4847 32.8157 27.7004Z" fill="white"/>
</g>
<defs>
<clipPath id="clip0_7699_9823">
<rect width="27.664" height="28" fill="white" transform="translate(7 7)"/>
</clipPath>
</defs>
</svg>

<svg width="42" height="42" viewBox="0 0 42 42" fill="none" xmlns="http://www.w3.org/2000/svg"><circle cx="21" cy="21" r="21" fill="#000"/><g clip-path="url(#clip0_7699_9823)"><path d="M28.41 25.636c.986 1.325 2.003 2.68 3.02 4.036-2.034 2.403-4.56 3.943-7.61 4.59-3.388.709-6.592.185-9.704-1.54 2.773-2.064 5.484-4.097 8.226-6.13.616.585 1.201 1.17 1.786 1.725.647.616.4.646 1.233.184a8.544 8.544 0 002.834-2.618c.03-.062.092-.123.123-.185-.03 0 0 0 .092-.062zm-12.106 2.711c-.77.586-1.48 1.11-2.188 1.664-.523.4-1.047.77-1.57 1.17-.216.185-.37.185-.617-.03-2.341-2.095-3.82-4.683-4.374-7.764-.555-3.11-.062-6.068 1.417-8.872.03-.061.092-.154.123-.215 0-.031.03-.031.092-.062 2.034 2.68 4.098 5.36 6.13 8.04-.06.093-.092.155-.153.216a53.747 53.747 0 01-1.88 1.91c-.184.185-.215.339-.092.555a9.113 9.113 0 002.65 3.08c.153.093.277.185.462.308zm11.49-19.13c-.986.708-1.971 1.417-2.957 2.094-1.695 1.202-3.389 2.434-5.052 3.636-.216.154-.37.184-.555-.031-.554-.585-1.14-1.11-1.694-1.695-.154-.154-.308-.184-.524-.092-1.325.678-2.372 1.633-3.235 2.834a1.705 1.705 0 00-.184.247c-.493-.647-.955-1.233-1.418-1.849-.492-.647-.955-1.294-1.417-1.91-.154-.215-.184-.37.031-.585 2.372-2.619 5.299-4.159 8.81-4.529 2.773-.308 5.423.247 7.887 1.572.093.061.185.092.277.154 0 .092 0 .123.031.154zM32.816 27.7a261.715 261.715 0 01-1.818-2.372c-1.355-1.787-2.71-3.604-4.097-5.39-.185-.247-.185-.401.03-.617.586-.585 1.14-1.17 1.726-1.756.154-.154.215-.308.092-.524a9.13 9.13 0 00-2.803-3.234c-.093-.062-.185-.154-.308-.216.092-.092.185-.154.246-.215 1.17-.894 2.342-1.756 3.512-2.65.185-.154.34-.216.555 0 2.926 2.65 4.497 5.946 4.651 9.92.062 2.31-.462 4.497-1.509 6.561a2.328 2.328 0 00-.277.493z" fill="#fff"/></g><defs><clipPath id="clip0_7699_9823"><path fill="#fff" transform="translate(7 7)" d="M0 0h27.664v28H0z"/></clipPath></defs></svg>
